X: 1
T: Wha wadna fecht for Charlie
R: reel
O: Arr: Peter White
B: Hugh Foss "DANCES to SONG TUNES" 1966 (music: Peter White)
Z: 2010 John Chambers <jc:trillian.mit.edu>
M: 2/4
L: 1/8
K: F
|: "F"F2 F>G | AG Ac | "F"F2 "Bb"F>B | "F"Ac "C7"G2 |
   "F"F2 "Dm"F>G | "A7"AG "Dm"Ac | "Bb"df "F"cf | Af "C7"G2 !fine!y|]
"F"Ac cd | f>c "Bb"dc | "F"Ac "Am"cd | "Dm"f>A "C7"G2 |
"F"Ac cd/e/ | f>c "Bb"dc | "Bb"df "F"cf | Af "C7"G2 :|
